modules/hawcons-filled/icons/icon-68-thermometer-quarter.svg

<?xml version="1.0" encoding="UTF-8" standalone="no"?>
<svg width="32px" height="32px" viewBox="0 0 32 32" version="1.1" xmlns="http://www.w3.org/2000/svg" xmlns:xlink="http://www.w3.org/1999/xlink" xmlns:sketch="http://www.bohemiancoding.com/sketch/ns">
    <!-- Generator: Sketch 3.0.3 (7891) - http://www.bohemiancoding.com/sketch -->
    <title>icon 68 thermometer quarter</title>
    <desc>Created with Sketch.</desc>
    <defs></defs>
    <g id="Page-1" stroke="none" stroke-width="1" fill="none" fill-rule="evenodd" sketch:type="MSPage">
        <g id="icon-68-thermometer-quarter" sketch:type="MSArtboardGroup" fill="#929292">
            <path d="M16.9863504,23.1659185 C18.1586673,23.5738762 19,24.6886862 19,26 C19,27.6568543 17.6568543,29 16,29 C14.3431457,29 13,27.6568543 13,26 C13,24.6885629 13.8414908,23.5736667 15.0139801,23.1658035 C15.0047837,23.1109462 15,23.0545736 15,22.9970707 L15,18.0029293 C15,17.4378814 15.4477153,17 16,17 C16.5561352,17 17,17.4490268 17,18.0029293 L17,22.9970707 C17,23.0547906 16.9953282,23.1111836 16.9863504,23.1659185 L16.9863504,23.1659185 Z M18,22.5351287 C19.1956028,23.2267475 20,24.5194352 20,26 C20,28.2091391 18.2091391,30 16,30 C13.7908609,30 12,28.2091391 12,26 C12,24.5194352 12.8043972,23.2267475 14,22.5351287 L14,4.00359486 C14,2.88976324 14.8954305,2 16,2 C17.1122704,2 18,2.89703997 18,4.00359486 L18,22.5351287 L18,22.5351287 L18,22.5351287 Z M19.9686149,21.4998925 C21.2143165,22.5993118 22,24.2079027 22,26 C22,29.3137087 19.3137087,32 16,32 C12.6862913,32 10,29.3137087 10,26 C10,24.2079329 10.785657,22.599366 12.0313221,21.4999481 C12.0106518,21.3352618 12,21.1674643 12,20.9971835 L12,4.00281647 C12,1.79793835 13.790861,0 16,0 C18.2046438,0 20,1.79212198 20,4.00281647 L20,20.9971835 C20,21.1673915 19.9893278,21.3351745 19.9686149,21.4998925 L19.9686149,21.4998925 L19.9686149,21.4998925 Z" id="thermometer-quarter" sketch:type="MSShapeGroup"></path>
        </g>
    </g>
</svg>

<svg width="32" height="32" viewBox="0 0 32 32" xmlns="http://www.w3.org/2000/svg"><path d="M16.986 23.166A3.001 3.001 0 0 1 16 29a3 3 0 0 1-.986-5.834 1.02 1.02 0 0 1-.014-.169v-4.994A.994.994 0 0 1 16 17c.556 0 1 .449 1 1.003v4.994c0 .058-.005.114-.014.169zm1.014-.63a4 4 0 1 1-4 0V4.003C14 2.89 14.895 2 16 2c1.112 0 2 .897 2 2.004v18.531zm1.969-1.036a6 6 0 1 1-7.937 0 4.036 4.036 0 0 1-.032-.503V4.003A4.005 4.005 0 0 1 16 0c2.205 0 4 1.792 4 4.003v16.994c0 .17-.01.338-.031.503z" fill="#929292" fill-rule="evenodd"/></svg>
